Gruvbox-Plus-Dark/panel/16/nomachine-indicator.svg

<svg width="16" height="16" version="1" xmlns="http://www.w3.org/2000/svg">
  <defs>
    <style id="current-color-scheme" type="text/css">.ColorScheme-Text { color:#ebdbb2; } .ColorScheme-Highlight { color:#458588; } .ColorScheme-NeutralText { color:#fe8019; } .ColorScheme-PositiveText { color:#689d6a; } .ColorScheme-NegativeText { color:#fb4934; }</style>
  </defs>
  <path class="ColorScheme-Text" d="m1.875 1c-0.4848 0-0.875 0.3938-0.875 0.875v12.25c0 0.4812 0.3902 0.875 0.875 0.875h12.25c0.4812 0 0.875-0.3938 0.875-0.875v-12.25c0-0.4812-0.3938-0.875-0.875-0.875h-12.25zm0.125 3h2v5h-2v-5zm3 0h8v8h-2v-5h-1v5h-2v-5h-1v5h-2v-8zm-3 6h2v2h-2v-2z" fill="currentColor"/>
</svg>

<svg xmlns="http://www.w3.org/2000/svg" width="16" height="16" version="1">
 <defs>
  <style id="current-color-scheme" type="text/css">
   .ColorScheme-Text { color:#ebdbb2; } .ColorScheme-Highlight { color:#458588; }
  </style>
 </defs>
 <path style="fill:currentColor" class="ColorScheme-Text" d="M 1.875 1 C 1.39025 1 1 1.39375 1 1.875 L 1 14.125 C 1 14.60625 1.39025 15 1.875 15 L 14.125 15 C 14.60625 15 15 14.60625 15 14.125 L 15 1.875 C 15 1.39375 14.60625 1 14.125 1 L 1.875 1 z M 2 4 L 4 4 L 4 9 L 2 9 L 2 4 z M 5 4 L 13 4 L 13 12 L 11 12 L 11 7 L 10 7 L 10 12 L 8 12 L 8 7 L 7 7 L 7 12 L 5 12 L 5 4 z M 2 10 L 4 10 L 4 12 L 2 12 L 2 10 z"/>
</svg>
